Newaita-dark/.DP/24/synergy-panel.svg

<svg xmlns="http://www.w3.org/2000/svg" xmlns:xlink="http://www.w3.org/1999/xlink" width="24px" height="24px" viewBox="0 0 24 24" version="1.1">
<g id="surface1">
<path style=" stroke:none;fill-rule:nonzero;fill:rgb(93.333334%,93.333334%,93.333334%);fill-opacity:1;" d="M 11.671875 3.164062 C 7.15625 3.28125 3.496094 6.710938 3.027344 11.128906 C 3.394531 11.4375 3.867188 11.621094 4.386719 11.621094 C 4.742188 11.621094 5.070312 11.535156 5.363281 11.382812 C 5.707031 8.148438 8.375 5.628906 11.671875 5.515625 C 11.523438 5.148438 11.4375 4.75 11.4375 4.335938 C 11.4375 3.917969 11.523438 3.523438 11.671875 3.164062 Z M 12.710938 3.195312 C 12.5 3.523438 12.378906 3.914062 12.378906 4.335938 C 12.378906 4.792969 12.523438 5.21875 12.773438 5.5625 C 15.929688 5.976562 18.375 8.609375 18.484375 11.855469 C 18.851562 11.703125 19.25 11.621094 19.664062 11.621094 C 20.082031 11.621094 20.476562 11.703125 20.835938 11.851562 C 20.71875 7.28125 17.203125 3.589844 12.710938 3.195312 Z M 11.90625 7.390625 C 9.300781 7.390625 7.203125 9.484375 7.203125 12.089844 C 7.203125 14.695312 9.300781 16.792969 11.90625 16.792969 C 14.511719 16.792969 16.609375 14.695312 16.609375 12.089844 C 16.609375 9.484375 14.511719 7.390625 11.90625 7.390625 Z M 2.976562 12.21875 C 3.039062 16.835938 6.578125 20.589844 11.109375 20.988281 C 11.316406 20.660156 11.4375 20.265625 11.4375 19.847656 C 11.4375 19.390625 11.292969 18.960938 11.046875 18.617188 C 7.914062 18.210938 5.484375 15.617188 5.335938 12.414062 C 5.035156 12.507812 4.71875 12.5625 4.386719 12.5625 C 3.875 12.5625 3.398438 12.4375 2.976562 12.21875 Z M 19.664062 12.5625 C 19.203125 12.5625 18.78125 12.707031 18.4375 12.953125 C 18.023438 16.113281 15.390625 18.554688 12.144531 18.667969 C 12.296875 19.03125 12.378906 19.429688 12.378906 19.847656 C 12.378906 20.265625 12.296875 20.660156 12.148438 21.019531 C 16.71875 20.902344 20.410156 17.382812 20.804688 12.890625 C 20.476562 12.679688 20.085938 12.5625 19.664062 12.5625 Z M 19.664062 12.5625 "/>
</g>
</svg>

<svg xmlns="http://www.w3.org/2000/svg" width="32" height="32" viewBox="0 0 24 24"><path d="M11.668 3.16a8.912 8.912 0 0 0-8.64 7.969 2.1 2.1 0 0 0 1.359.492c.351 0 .683-.086.976-.238a6.57 6.57 0 0 1 6.309-5.871 3.1 3.1 0 0 1-.004-2.352zm1.043.035a2.128 2.128 0 0 0 .059 2.371 6.56 6.56 0 0 1 5.714 6.29 3.092 3.092 0 0 1 2.355-.004 8.909 8.909 0 0 0-8.128-8.657zm-.805 4.196a4.69 4.69 0 0 0-4.703 4.699 4.693 4.693 0 0 0 4.703 4.703 4.693 4.693 0 0 0 4.703-4.703 4.69 4.69 0 0 0-4.703-4.7zm-8.93 4.828a8.911 8.911 0 0 0 8.13 8.77c.21-.329.332-.72.332-1.141 0-.461-.145-.883-.391-1.23a6.565 6.565 0 0 1-5.711-6.208 3.058 3.058 0 0 1-2.36-.191zm16.688.344c-.457 0-.883.144-1.23.39a6.564 6.564 0 0 1-6.29 5.715c.153.363.235.762.235 1.18 0 .418-.082.812-.23 1.172a8.909 8.909 0 0 0 8.656-8.13 2.13 2.13 0 0 0-1.14-.328zm0 0" fill="#bdbdbd"/></svg>
